X:1
T:Walking in the King’s Highway
T:Florence Horton, 1906
T:Walking in the King’s Highway
T:Public Domain
T:Public Domain
T:Public Domain
C:Florence Horton, 1906
Z:Public Domain
%%score ( 1 2 ) ( 3 4 )
L:1/8
M:4/4
K:Eb
V:1 treble 
V:2 treble 
V:3 bass 
V:4 bass 
V:1
 B,B, | [B,E]2 [B,E]2 [B,E][B,D][B,E][DF] | [EG]8 | [GB][GB][GB][Ac] [GB]2 ([FA][EG]) | %4
w: 1.~We~shall *|see the des- ert as the|rose,|Walk- ing in the King’s high- *|
w: 2.~We~shall *|see the glo- ry of the|Lord,|Walk- ing in the King’s high- *|
w: 3.~There~the *|rain shall come up- on the|ground,|Walk- ing in the King’s high- *|
w: 4.~There~no *|rav- enous beast shall make a-|fraid,|Walk- ing in the King’s high- *|
w: 5.~No *|un- clean things shall pass o’er|here,|Walk- ing in the King’s high- *|
 [DF]6 B,B, | [B,E]2 [CE]2 [B,E][B,D][B,E][DF] | [EG]8 | [GB][GB]E[EA] [EG]2 [DF]2 | [B,E]6 || %9
w: way; There’ll be|sing- ing where sal- va- tion|goes,|Walk- ing in the King’s high-|way.|
w: way; And be-|hold the beau- ty of His|Word,|Walk- ing in the King’s high-|way.|
w: way; And the|springs of wa- ter will be|found,|Walk- ing in the King’s high-|way.|
w: way; For the|pur- i- fied the way was|made,|Walk- ing in the King’s high-|way.|
w: way; But the|ran- somed ones with- out a|fear,|Walk- ing in the King’s high-|way.|
"^Refrain" [EG]>[FA] | [GB]2 [EG]2 [GB]2 E>[EF] | (E2 E>E E2) [GB]2 | %12
w: |||
w: There’s a|high- way there and a|Where * * * sor-|
w: |||
w: |||
w: |||
 [Ac] [GB]2 [EG] ([Ac] [GB]2) [EG] | (D2 F>D D2) [EB]>[AB] | [Ge]2 [Be]2 [Ae]2 [Bd]>[Ac] | %15
w: |||
w: shall flee a- way; * And|the * * * light shines|as the day, Walk- ing|
w: |||
w: |||
w: |||
 (G2 E>F G4) | [GB][GB]E[EA] [EG]2 [DF]2 | [B,E]6 |] %18
w: |||
w: in * * *|King’s high- way. * * *||
w: |||
w: |||
w: |||
V:2
 x2 | x8 | x8 | x8 | x8 | x8 | x8 | x8 | x6 || x2 | x6 E3/2 x/ | G6 x2 | x8 | F6 x2 | x8 | B8 | %16
w: ||||||||||||||||
w: ||||||||||way,|row||bright||the|
 x2 E x5 | x6 |] %18
w: ||
w: ||
V:3
 B,B, | [E,G,]2 [E,G,]2 [E,G,][F,A,][G,B,]B, | [E,B,]8 | [E,E][E,E][E,E][E,E] [E,E]2 (D,E,) | %4
w: ~ ~|~ ~ ~ ~ ~ ~|~|~ ~ ~ ~ ~ ~ *|
 [B,,B,]6 B,B, | [E,G,]2 [E,G,]2 [E,G,][F,A,][G,B,]B, | [E,B,]8 | %7
w: ~ ~ ~|~ ~ ~ ~ ~ ~|~|
 [E,E][E,E][G,B,][A,C] B,2 [B,,A,]2 | [E,G,]6 || [E,B,]>[E,B,] | [E,E]2 [E,B,]2 [E,E]2 [G,B,]>B, | %11
w: ~ ~ ~ ~ ~ ~|~|~ ~|~ ~ ~ way, and|
 [E,B,]2 [E,B,]>[E,B,] [E,B,]2 [E,E]2 | [E,E] [E,E]2 [E,B,] [E,E]3 [E,B,] | %13
w: way Where sor- row shall|flee a- way, flee a-|
 [B,,B,]2 [D,B,]>[F,B,] (B,A,) [G,B,]>[F,B,] | [E,B,]2 [G,_D]2 [A,C]2 [A,=D]>[A,E] | %15
w: way; And the light * shines bright|the day, as the day|
 [E,E]2 [G,E]>[B,D] [E,E]4 | [E,E][E,E][G,B,][A,C] B,2 [B,,A,]2 | [E,G,]6 |] %18
w: |||
V:4
 x2 | x8 | x8 | x6 B,2 | x8 | x8 | x8 | x4 B,2 x2 | x6 || x2 | x15/2 B,/ | x8 | x8 | x4 B,2 x2 | %14
w: |||~||||~|||a|||as|
 x8 | x8 | x4 B,2 x2 | x6 |] %18
w: ||||

